src/assets/lens-dark.svg

<svg fill="none" height="16" viewBox="0 0 16 16" width="16" xmlns="http://www.w3.org/2000/svg"><circle cx="8" cy="8" fill="#abfe2c" fill-opacity=".8" r="8"/><path d="m12.6975 11.65-.1025.0475c-.615.2825-1.32.3575-1.9825.2075-.3575-.08-.69-.22-.9925-.4125.6.1575 1.255.0825 1.8075-.21.025-.0125.0525-.0275.0775-.0425l.1075-.06-.3-.5275-.1075.0625c-.02.0125-.04.0225-.06.0325-.5975.315-1.3025.2925-1.885-.0575-.5175-.31-.8525-.8225-.935-1.405.7125-.065 2.46-.37 3.8625-1.7725.0375-.0375.075-.075.11-.1125.3875-.41.5725-.8975.5325-1.4125-.035-.4525-.2425-.89-.5825-1.23s-.78-.55-1.23-.5825c-.4025-.0325-.7975.0775-1.145.315-.0775-.415-.2775-.7675-.585-1.0325-.345-.295-.8-.4575-1.2825-.4575s-.94.1625-1.2825.4575c-.3075.265-.5075.6175-.585 1.0325-.3475-.2375-.74-.3475-1.145-.315-.4525.035-.89.2425-1.23.5825-.3425.3425-.55.78-.5825 1.23-.04.515.145 1.0025.5325 1.4125.035.0375.0725.075.11.1125 1.4025 1.4025 3.1475 1.7075 3.8625 1.7725-.0825.5825-.42 1.095-.935 1.405-.585.3525-1.29.3725-1.885.0575-.02-.01-.04-.0225-.06-.0325l-.1075-.0625-.3.5275.1075.06c.025.015.0525.03.0775.0425.555.2925 1.21.3675 1.8075.21-.3.1925-.635.3325-.9925.4125-.6625.15-1.3675.075-1.9825-.2075l-.1025-.0475-.3125.525.1225.0575c.735.345 1.6.44 2.4.2625.83-.1875 1.55-.6375 2.0825-1.3025.0325-.04.0625-.0825.095-.1225v1.5175h.605v-1.5225c.0325.0425.0625.0875.0975.1275.5325.665 1.2525 1.115 2.0825 1.3025.2675.06.5425.09.8175.09.5475 0 1.0925-.1225 1.5825-.3525l.115-.0575zm-5.9975-6.5575c0-.035-.0025-.07-.0025-.1075 0-.0475 0-.095.0025-.14.0225-.855.69-1.245 1.3-1.245s1.2775.39 1.3 1.245c.0025.0475.0025.095.0025.14 0 .0375 0 .0725-.0025.11l-.0225.815.5675-.6c.0225-.025.045-.0475.07-.0725.0325-.0325.0675-.065.1-.0975.62-.5875 1.3675-.3925 1.8.04s.6275 1.1775.04 1.8c-.0325.035-.065.0675-.0975.1-1.5825 1.5875-3.7375 1.615-3.7575 1.615-.0225 0-2.1725-.0275-3.7575-1.6125-.0325-.0325-.065-.0675-.0975-.1-.5875-.6225-.3925-1.3675.04-1.8.26-.26.6025-.41.9375-.41.3125 0 .6025.125.8625.37.035.0325.0675.065.1.0975.025.0275.05.0525.0775.08l.5625.5925z" fill="#00501e"/></svg>

<svg xmlns="http://www.w3.org/2000/svg" width="16" height="16" viewBox="0 0 16 16" fill="none">
    <circle cx="8" cy="8" r="8" fill="#ABFE2C" fill-opacity="0.8" />
    <path
        d="M12.6975 11.65L12.595 11.6975C11.98 11.98 11.275 12.055 10.6125 11.905C10.255 11.825 9.9225 11.685 9.62 11.4925C10.22 11.65 10.875 11.575 11.4275 11.2825C11.4525 11.27 11.48 11.255 11.505 11.24L11.6125 11.18L11.3125 10.6525L11.205 10.715C11.185 10.7275 11.165 10.7375 11.145 10.7475C10.5475 11.0625 9.8425 11.04 9.26 10.69C8.7425 10.38 8.4075 9.8675 8.325 9.285C9.0375 9.22 10.785 8.915 12.1875 7.5125C12.225 7.475 12.2625 7.4375 12.2975 7.4C12.685 6.99 12.87 6.5025 12.83 5.9875C12.795 5.535 12.5875 5.0975 12.2475 4.7575C11.9075 4.4175 11.4675 4.2075 11.0175 4.175C10.615 4.1425 10.22 4.2525 9.8725 4.49C9.795 4.075 9.595 3.7225 9.2875 3.4575C8.9425 3.1625 8.4875 3 8.005 3C7.5225 3 7.065 3.1625 6.7225 3.4575C6.415 3.7225 6.215 4.075 6.1375 4.49C5.79 4.2525 5.3975 4.1425 4.9925 4.175C4.54 4.21 4.1025 4.4175 3.7625 4.7575C3.42 5.1 3.2125 5.5375 3.18 5.9875C3.14 6.5025 3.325 6.99 3.7125 7.4C3.7475 7.4375 3.785 7.475 3.8225 7.5125C5.225 8.915 6.97 9.22 7.685 9.285C7.6025 9.8675 7.265 10.38 6.75 10.69C6.165 11.0425 5.46 11.0625 4.865 10.7475C4.845 10.7375 4.825 10.725 4.805 10.715L4.6975 10.6525L4.3975 11.18L4.505 11.24C4.53 11.255 4.5575 11.27 4.5825 11.2825C5.1375 11.575 5.7925 11.65 6.39 11.4925C6.09 11.685 5.755 11.825 5.3975 11.905C4.735 12.055 4.03 11.98 3.415 11.6975L3.3125 11.65L3 12.175L3.1225 12.2325C3.8575 12.5775 4.7225 12.6725 5.5225 12.495C6.3525 12.3075 7.0725 11.8575 7.605 11.1925C7.6375 11.1525 7.6675 11.11 7.7 11.07V12.5875H8.305V11.065C8.3375 11.1075 8.3675 11.1525 8.4025 11.1925C8.935 11.8575 9.655 12.3075 10.485 12.495C10.7525 12.555 11.0275 12.585 11.3025 12.585C11.85 12.585 12.395 12.4625 12.885 12.2325L13 12.175L12.6975 11.65ZM6.7 5.0925C6.7 5.0575 6.6975 5.0225 6.6975 4.985C6.6975 4.9375 6.6975 4.89 6.7 4.845C6.7225 3.99 7.39 3.6 8 3.6C8.61 3.6 9.2775 3.99 9.3 4.845C9.3025 4.8925 9.3025 4.94 9.3025 4.985C9.3025 5.0225 9.3025 5.0575 9.3 5.095L9.2775 5.91L9.845 5.31C9.8675 5.285 9.89 5.2625 9.915 5.2375C9.9475 5.205 9.9825 5.1725 10.015 5.14C10.635 4.5525 11.3825 4.7475 11.815 5.18C12.2475 5.6125 12.4425 6.3575 11.855 6.98C11.8225 7.015 11.79 7.0475 11.7575 7.08C10.175 8.6675 8.02 8.695 8 8.695C7.9775 8.695 5.8275 8.6675 4.2425 7.0825C4.21 7.05 4.1775 7.015 4.145 6.9825C3.5575 6.36 3.7525 5.615 4.185 5.1825C4.445 4.9225 4.7875 4.7725 5.1225 4.7725C5.435 4.7725 5.725 4.8975 5.985 5.1425C6.02 5.175 6.0525 5.2075 6.085 5.24C6.11 5.2675 6.135 5.2925 6.1625 5.32L6.725 5.9125L6.7 5.0925Z"
        fill="#00501E" />
</svg>
